X: 554
T: Above And Beyond
R: hornpipe
M: 4/4
K: Gmajor
DG~G2 BAAc|Bd~d2 ed (3Bcd|~g3e dB~B2|degG BAAB|
DG~G2 BAAc|Bd~d2 ed (3Bcd|~g3e dB~B2|1 AGGF ~G3E:|2 AGGF GA (3Bcd||
|:~g3f ed~d2|Bddg eB~B2|~g2fd ed~d2|Bdde BAAB|
DG~G2 BAAc|Bd~d2 ed (3Bcd|~g3e dB~B2|1 AGGF GA (3Bcd:|2 AGGF ~G3E||

